configs/network-logos/blast-light.svg

<svg width="120" height="23" viewBox="0 0 120 23" fill="none" xmlns="http://www.w3.org/2000/svg">
<path fill-rule="evenodd" clip-rule="evenodd" d="M31.254 2L34.3407 4.2103L30.0261 17.1807H44.1272L42.9524 20.7104H29.0967L25.8169 18.3458L26.2554 17.0265L31.254 2ZM26.9395 9.16191L22.432 11.3379L22.4145 11.3893L25.4662 13.5825L23.8351 18.5L19.2929 20.71L19.2928 20.7104H1.87692L6.54223 6.36918L9.66409 8.64801L6.85793 17.1807H20.4504L19.3321 20.5906L22.011 12.503H12.2946L13.2417 9.67591H22.9581L24.2384 5.76936H0L4.77051 2.30829H25.3959L28.4828 4.51857L26.9395 9.16191ZM54.6157 2.30829L49.8626 5.76936H67.7874L68.9222 2.37626L64.1643 16.6984L58.1585 12.246H52.6511L63.6479 20.7102H66.647L72.0315 4.51857L68.9449 2.30829H68.9448H54.6157ZM120 5.76936L115.265 2.30829H97.7434L96.6035 5.76936H105.846L100.883 20.7102H104.706L109.652 5.76936H120ZM44.899 20.7103L49.8622 5.76949L52.9493 7.97977L48.7224 20.7103H44.899ZM76.311 9.76172L76.9248 7.96264L73.8554 5.76949L72.1017 11.0125L75.1535 13.1885V13.2057H88.8336L87.5182 17.1807H70.1023L68.9448 20.7103H86.343L90.903 18.5001L93.1482 11.7493L90.3242 9.72743L76.311 9.76172ZM73.8555 5.76936L78.591 2.30829H95.8667L94.7091 5.76936H73.8555Z" fill="#0E0E0B"/>
</svg>

<svg xmlns="http://www.w3.org/2000/svg" fill="none" viewBox="0 0 120 23">
  <path fill="#0E0E0B" fill-rule="evenodd" d="m31.254 2 3.087 2.21-4.315 12.97h14.101l-1.175 3.53H29.097l-3.28-2.364.438-1.32L31.254 2Zm-4.315 7.162-4.507 2.176-.017.051 3.051 2.194-1.63 4.917-4.543 2.21H1.877L6.542 6.37l3.122 2.278-2.806 8.533H20.45l-1.118 3.41 2.679-8.088h-9.716l.947-2.827h9.716l1.28-3.907H0l4.77-3.46h20.626l3.087 2.21-1.544 4.643Zm27.677-6.854L49.863 5.77h17.924l1.135-3.393-4.758 14.322-6.006-4.452h-5.507l10.997 8.464h2.999L72.031 4.52l-3.086-2.21h-14.33ZM120 5.77l-4.735-3.46H97.743l-1.14 3.46h9.243l-4.963 14.941h3.823l4.946-14.94H120ZM44.899 20.71l4.963-14.94 3.087 2.21-4.227 12.73H44.9ZM76.311 9.762l.614-1.8-3.07-2.193-1.753 5.243 3.051 2.176v.018h13.68l-1.315 3.975H70.102l-1.157 3.53h17.398l4.56-2.21 2.245-6.752-2.824-2.022-14.013.035Zm-2.456-3.993 4.736-3.46h17.276l-1.158 3.46H73.856Z" clip-rule="evenodd"/>
</svg>
